; generated by Slic3r 1.2.9 on 2016-04-19 at 16:10:57

; external perimeters extrusion width = 0.40mm
; perimeters extrusion width = 0.67mm
; infill extrusion width = 0.67mm
; solid infill extrusion width = 0.67mm
; top infill extrusion width = 0.18mm

M104 S205 ; set temperature
G28 ; home all axes
G1 Z5 F5000 ; lift nozzle

M109 S205 ; wait for temperature to be reached
G21 ; set units to millimeters
G90 ; use absolute coordinates
M82 ; use absolute distances for extrusion
G92 E0
G1 E-1.00000 F1800.00000
G92 E0
G1 Z0.200 F7800.000
G1 X69.790 Y69.790 F7800.000
G1 E1.00000 F1800.00000
G1 X70.412 Y69.175 E1.02599 F1800.000
G1 X71.314 Y68.334 E1.06257
G1 X72.635 Y67.186 E1.11456
G1 X73.593 Y66.410 E1.15114
G1 X74.781 Y65.509 E1.19542
G1 X76.214 Y64.506 E1.24737
G1 X77.468 Y63.697 E1.29168
G1 X78.749 Y62.932 E1.33597
G1 X79.827 Y62.335 E1.37256
G1 X81.386 Y61.540 E1.42451
G1 X82.503 Y61.020 E1.46109
G1 X83.874 Y60.433 E1.50539
G1 X85.509 Y59.805 E1.55737
G1 X86.920 Y59.324 E1.60165
G1 X88.098 Y58.964 E1.63824
G1 X89.788 Y58.511 E1.69019
G1 X90.990 Y58.234 E1.72679
G1 X92.453 Y57.944 E1.77107
G1 X94.182 Y57.671 E1.82306
G1 X95.405 Y57.520 E1.85965
G1 X96.890 Y57.386 E1.90391
G1 X98.638 Y57.294 E1.95588
G1 X100.141 Y57.273 E2.00051
G1 X101.620 Y57.303 E2.04444 F1800.000
G1 X102.851 Y57.368 E2.08104
G1 X104.337 Y57.493 E2.12532
G1 X106.075 Y57.707 E2.17730
G1 X107.547 Y57.944 E2.22158
G1 X109.010 Y58.234 E2.26587
G1 X110.211 Y58.511 E2.30245
G1 X111.653 Y58.892 E2.34673
G1 X113.326 Y59.404 E2.39868
G1 X114.735 Y59.894 E2.44299
G1 X116.125 Y60.432 E2.48724
G1 X117.260 Y60.914 E2.52385
G1 X118.614 Y61.540 E2.56815
G1 X119.945 Y62.213 E2.61242
G1 X121.475 Y63.062 E2.66438
G1 X122.752 Y63.834 E2.70869
G1 X123.786 Y64.505 E2.74527
G1 X125.009 Y65.357 E2.78954
G1 X126.203 Y66.251 E2.83382
G1 X127.365 Y67.186 E2.87810
G1 X128.494 Y68.161 E2.92239
G1 X129.588 Y69.175 E2.96667
G1 X130.646 Y70.226 E3.01096
G1 X131.839 Y71.506 E3.06292
G1 X132.814 Y72.635 E3.10721
G1 X133.749 Y73.797 E3.15149
G1 X134.643 Y74.991 E3.19577
G1 X135.350 Y76.000 E3.23236
G1 X136.166 Y77.248 E3.27663
G1 X136.939 Y78.525 E3.32095
G1 X137.665 Y79.827 E3.36521
G1 X144.011 Y91.568 E3.76149
G1 X144.849 Y94.195 E3.84335
G1 X144.993 Y95.401 E3.87943
G1 X145.126 Y96.974 E3.92630
G1 X145.195 Y98.292 E3.96548
G1 X145.227 Y99.870 E4.01235
G1 X145.204 Y101.449 E4.05924
G1 X145.126 Y103.026 E4.10610
G1 X144.993 Y104.599 E4.15297
G1 X144.849 Y105.805 E4.18905
G1 X144.011 Y108.432 E4.27091
G1 X137.665 Y120.173 E4.66719
G1 X136.938 Y121.476 E4.71148
G1 X136.166 Y122.752 E4.75578
G1 X135.350 Y124.000 E4.80004
G1 X134.643 Y125.010 E4.83665
G1 X133.757 Y126.193 E4.88054
G1 X132.814 Y127.365 E4.92519
G1 X131.839 Y128.494 E4.96948
G1 X130.645 Y129.774 E5.02145
G1 X129.588 Y130.825 E5.06573
G1 X128.494 Y131.839 E5.11001
G1 X127.365 Y132.814 E5.15430
G1 X126.204 Y133.749 E5.19856
G1 X125.010 Y134.643 E5.24284
G1 X123.786 Y135.494 E5.28711
G1 X122.532 Y136.304 E5.33143
G1 X121.251 Y137.068 E5.37572
G1 X119.946 Y137.786 E5.41996
G1 X118.847 Y138.346 E5.45656
G1 X117.498 Y138.980 E5.50084
G1 X116.126 Y139.567 E5.54514
G1 X114.491 Y140.195 E5.59712
G1 X113.080 Y140.676 E5.64140
G1 X111.654 Y141.107 E5.68563
G1 X110.462 Y141.427 E5.72226
G1 X109.010 Y141.767 E5.76653
G1 X107.547 Y142.056 E5.81082
G1 X105.820 Y142.329 E5.86275
G1 X104.595 Y142.480 E5.89939
G1 X103.110 Y142.614 E5.94366
G1 X101.621 Y142.697 E5.98794
G1 X99.870 Y142.727 E6.03992
G1 X98.379 Y142.697 E6.08421
G1 X96.878 Y142.613 E6.12885
G1 X95.405 Y142.480 E6.17275
G1 X94.182 Y142.330 E6.20934
G1 X92.708 Y142.101 E6.25364
G1 X90.990 Y141.766 E6.30561
G1 X89.538 Y141.427 E6.34989
G1 X88.099 Y141.037 E6.39414
G1 X86.920 Y140.676 E6.43075
G1 X85.265 Y140.106 E6.48273
G1 X83.874 Y139.567 E6.52701
G1 X82.503 Y138.980 E6.57130
G1 X81.153 Y138.346 E6.61559
G1 X80.055 Y137.787 E6.65217
G1 X78.749 Y137.068 E6.69643
G1 X77.468 Y136.303 E6.74072
G1 X76.214 Y135.495 E6.78502
G1 X74.781 Y134.491 E6.83699
G1 X73.593 Y133.590 E6.88123
G1 X72.635 Y132.814 E6.91784
G1 X71.506 Y131.839 E6.96214
G1 X70.226 Y130.645 E7.01411
G1 X69.175 Y129.588 E7.05839
G1 X68.334 Y128.686 E7.09499
G1 X67.360 Y127.573 E7.13890
G1 X66.410 Y126.407 E7.18355
G1 X65.509 Y125.219 E7.22782
G1 X64.505 Y123.786 E7.27979
G1 X63.697 Y122.532 E7.32408
G1 X62.932 Y121.251 E7.36837
G1 X55.989 Y108.432 E7.80124
G1 X55.151 Y105.805 E7.88310
G1 X55.007 Y104.599 E7.91917
G1 X54.892 Y103.284 E7.95835
G1 X54.805 Y101.708 E8.00522
G1 X54.773 Y99.871 E8.05979
G1 X54.805 Y98.292 E8.10667
G1 X54.874 Y96.974 E8.14586
G1 X55.007 Y95.401 E8.19271
G1 X55.151 Y94.194 E8.22880
G1 X55.989 Y91.568 E8.31065
G1 X62.932 Y78.749 E8.74352
G1 X63.697 Y77.468 E8.78781
G1 X64.505 Y76.214 E8.83210
G1 X65.357 Y74.990 E8.87637
G1 X66.251 Y73.797 E8.92065
G1 X67.186 Y72.635 E8.96493
G1 X68.161 Y71.506 E9.00922
G1 X69.175 Y70.412 E9.05350
G1 X69.748 Y69.833 E9.07771
G1 X70.043 Y70.043 F7800.000
G1 X70.656 Y69.436 E9.10333 F1800.000
G1 X71.557 Y68.595 E9.13991
G1 X72.860 Y67.463 E9.19115
G1 X73.817 Y66.688 E9.22774
G1 X74.996 Y65.794 E9.27164
G1 X76.409 Y64.805 E9.32286
G1 X77.652 Y64.003 E9.36680
G1 X78.708 Y63.368 E9.40338
G1 X80.000 Y62.647 E9.44730
G1 X81.537 Y61.864 E9.49851
G1 X82.653 Y61.343 E9.53510
G1 X84.014 Y60.761 E9.57903
G1 X85.625 Y60.143 E9.63027
G1 X87.024 Y59.665 E9.67417
G1 X88.203 Y59.305 E9.71076
G1 X89.869 Y58.859 E9.76197
G1 X91.070 Y58.581 E9.79857
G1 X92.521 Y58.295 E9.84249
G1 X94.226 Y58.025 E9.89374
G1 X95.449 Y57.875 E9.93032
G1 X96.921 Y57.742 E9.97422
G1 X98.644 Y57.651 E10.02544
G1 X100.135 Y57.630 E10.06970
G1 X101.602 Y57.660 E10.11327 F1800.000
G1 X102.833 Y57.724 E10.14987
G1 X104.306 Y57.849 E10.19378
G1 X106.019 Y58.059 E10.24502
G1 X107.479 Y58.295 E10.28893
G1 X108.930 Y58.581 E10.33284
G1 X110.131 Y58.859 E10.36943
G1 X111.560 Y59.237 E10.41333
G1 X113.210 Y59.741 E10.46454
G1 X114.607 Y60.227 E10.50848
G1 X115.986 Y60.761 E10.55237
G1 X117.121 Y61.243 E10.58897
G1 X118.463 Y61.864 E10.63290
G1 X119.783 Y62.532 E10.67681
G1 X121.291 Y63.368 E10.72802
G1 X122.558 Y64.134 E10.77196
G1 X123.591 Y64.805 E10.80855
G1 X124.805 Y65.649 E10.85244
G1 X125.988 Y66.536 E10.89636
G1 X127.140 Y67.463 E10.94026
G1 X128.260 Y68.430 E10.98419
G1 X129.344 Y69.436 E11.02809
G1 X130.393 Y70.479 E11.07202
G1 X131.570 Y71.740 E11.12323
G1 X132.537 Y72.860 E11.16716
G1 X133.464 Y74.012 E11.21107
G1 X134.351 Y75.195 E11.25498
G1 X135.057 Y76.205 E11.29156
G1 X135.866 Y77.442 E11.33546
G1 X136.633 Y78.709 E11.37942
G1 X137.353 Y80.000 E11.42331
G1 X143.697 Y91.738 E11.81947
G1 X144.495 Y94.238 E11.89740
G1 X144.637 Y95.432 E11.93311
G1 X144.769 Y96.993 E11.97961
G1 X144.839 Y98.311 E12.01879
G1 X144.870 Y99.877 E12.06529
G1 X144.847 Y101.443 E12.11181
G1 X144.769 Y103.007 E12.15830
G1 X144.637 Y104.568 E12.20480
G1 X144.495 Y105.762 E12.24051
G1 X143.697 Y108.262 E12.31843
G1 X137.353 Y120.000 E12.71460
G1 X136.632 Y121.292 E12.75852
G1 X135.866 Y122.558 E12.80244
G1 X135.057 Y123.795 E12.84634
G1 X134.350 Y124.805 E12.88295
G1 X133.472 Y125.979 E12.92647
G1 X132.537 Y127.140 E12.97074
G1 X131.570 Y128.260 E13.01467
G1 X130.564 Y129.344 E13.05857
G1 X129.344 Y130.564 E13.10981
G1 X128.260 Y131.570 E13.15372
G1 X127.140 Y132.537 E13.19764
G1 X125.989 Y133.464 E13.24153
G1 X124.805 Y134.350 E13.28544
G1 X123.592 Y135.195 E13.32934
G1 X122.348 Y135.997 E13.37328
G1 X121.078 Y136.756 E13.41720
G1 X119.783 Y137.468 E13.46107
G1 X118.685 Y138.028 E13.49768
G1 X117.347 Y138.657 E13.54159
G1 X115.986 Y139.239 E13.58552
G1 X114.375 Y139.857 E13.63676
G1 X112.976 Y140.335 E13.68067
G1 X111.562 Y140.762 E13.72453
G1 X110.370 Y141.082 E13.76115
G1 X108.930 Y141.419 E13.80506
G1 X107.479 Y141.705 E13.84898
G1 X105.776 Y141.975 E13.90017
G1 X104.551 Y142.125 E13.93681
G1 X103.079 Y142.258 E13.98071
G1 X101.602 Y142.340 E14.02462
G1 X99.877 Y142.370 E14.07586
G1 X98.398 Y142.340 E14.11977
G1 X96.910 Y142.257 E14.16402
G1 X95.449 Y142.125 E14.20758
G1 X94.226 Y141.975 E14.24417
G1 X92.764 Y141.748 E14.28810
G1 X91.070 Y141.419 E14.33933
G1 X89.630 Y141.082 E14.38324
G1 X88.204 Y140.695 E14.42712
G1 X87.024 Y140.335 E14.46373
G1 X85.393 Y139.773 E14.51497
G1 X84.014 Y139.239 E14.55888
G1 X82.654 Y138.657 E14.60280
G1 X81.315 Y138.028 E14.64671
G1 X80.217 Y137.468 E14.68330
G1 X78.922 Y136.756 E14.72719
G1 X77.652 Y135.997 E14.77111
G1 X76.409 Y135.195 E14.81503
G1 X74.996 Y134.206 E14.86626
G1 X73.818 Y133.313 E14.91014
G1 X72.860 Y132.537 E14.94675
G1 X71.740 Y131.570 E14.99068
G1 X70.478 Y130.393 E15.04191
G1 X69.436 Y129.344 E15.08582
G1 X68.595 Y128.443 E15.12241
G1 X67.630 Y127.339 E15.16594
G1 X66.688 Y126.183 E15.21023
G1 X65.794 Y125.004 E15.25414
G1 X64.805 Y123.591 E15.30536
G1 X64.003 Y122.348 E15.34929
G1 X63.244 Y121.078 E15.39321
G1 X56.303 Y108.262 E15.82596
G1 X55.505 Y105.762 E15.90388
G1 X55.363 Y104.568 E15.93959
G1 X55.248 Y103.253 E15.97877
G1 X55.161 Y101.690 E16.02527
G1 X55.130 Y99.877 E16.07910
G1 X55.161 Y98.310 E16.12561
G1 X55.231 Y96.993 E16.16480
G1 X55.363 Y95.432 E16.21128
G1 X55.505 Y94.238 E16.24700
G1 X56.303 Y91.738 E16.32492
G1 X62.611 Y80.066 E16.71886
G1 X63.368 Y78.708 E16.76500
G1 X64.003 Y77.652 E16.80159
G1 X64.805 Y76.409 E16.84551
G1 X65.649 Y75.195 E16.88942
G1 X66.536 Y74.012 E16.93333
G1 X67.463 Y72.860 E16.97723
G1 X68.430 Y71.740 E17.02116
G1 X69.436 Y70.656 E17.06506
G1 X70.000 Y70.085 E17.08890
G1 X70.295 Y70.295 F7800.000
G1 X70.900 Y69.697 E17.11415 F1800.000
G1 X71.801 Y68.857 E17.15073
G1 X73.084 Y67.741 E17.20124
G1 X74.042 Y66.965 E17.23782
G1 X75.211 Y66.080 E17.28136
G1 X76.603 Y65.104 E17.33183
G1 X77.836 Y64.309 E17.37540
G1 X79.095 Y63.557 E17.41895
G1 X80.173 Y62.959 E17.45553
G1 X81.688 Y62.188 E17.50601
G1 X82.804 Y61.667 E17.54259
G1 X84.153 Y61.090 E17.58615
G1 X85.741 Y60.480 E17.63665
G1 X87.129 Y60.007 E17.68018
G1 X88.307 Y59.647 E17.71677
G1 X89.949 Y59.207 E17.76725
G1 X91.150 Y58.929 E17.80385
G1 X92.589 Y58.645 E17.84739
G1 X94.269 Y58.379 E17.89790
G1 X95.492 Y58.229 E17.93448
G1 X96.952 Y58.097 E17.97801
G1 X98.650 Y58.008 E18.02850
G1 X100.128 Y57.987 E18.07239
G1 X101.583 Y58.017 E18.11558 F1800.000
G1 X102.814 Y58.081 E18.15218
G1 X104.275 Y58.205 E18.19572
G1 X105.963 Y58.412 E18.24622
G1 X107.411 Y58.645 E18.28976
G1 X108.850 Y58.929 E18.33331
G1 X110.050 Y59.207 E18.36989
G1 X111.468 Y59.582 E18.41343
G1 X113.093 Y60.079 E18.46390
G1 X114.479 Y60.561 E18.50747
G1 X115.846 Y61.090 E18.55098
G1 X116.981 Y61.571 E18.58758
G1 X118.312 Y62.188 E18.63114
G1 X119.621 Y62.850 E18.67468
G1 X121.108 Y63.674 E18.72516
G1 X122.363 Y64.433 E18.76872
G1 X123.397 Y65.104 E18.80531
G1 X124.600 Y65.942 E18.84884
G1 X125.773 Y66.821 E18.89238
G1 X126.916 Y67.741 E18.93591
G1 X128.025 Y68.700 E18.97947
G1 X129.100 Y69.697 E19.02300
G1 X130.141 Y70.731 E19.06656
G1 X131.300 Y71.975 E19.11704
G1 X132.259 Y73.084 E19.16059
G1 X133.179 Y74.227 E19.20413
G1 X134.058 Y75.400 E19.24767
G1 X134.896 Y76.603 E19.29120
G1 X135.567 Y77.637 E19.32778
G1 X136.326 Y78.893 E19.37137
G1 X137.041 Y80.173 E19.41489
G1 X143.383 Y91.908 E19.81094
G1 X144.141 Y94.282 E19.88493
G1 X144.282 Y95.464 E19.92027
G1 X144.413 Y97.012 E19.96640
G1 X144.482 Y98.329 E20.00558
G1 X144.513 Y99.883 E20.05171
G1 X144.490 Y101.437 E20.09786
G1 X144.413 Y102.988 E20.14398
G1 X144.282 Y104.536 E20.19011
G1 X144.141 Y105.718 E20.22545
G1 X143.383 Y108.092 E20.29944
G1 X137.041 Y119.827 E20.69549
G1 X136.326 Y121.108 E20.73904
G1 X135.567 Y122.363 E20.78260
G1 X134.765 Y123.591 E20.82613
G1 X134.058 Y124.600 E20.86273
G1 X133.186 Y125.764 E20.90589
G1 X132.259 Y126.916 E20.94979
G1 X131.300 Y128.025 E20.99335
G1 X130.303 Y129.100 E21.03688
G1 X129.269 Y130.140 E21.08042
G1 X128.025 Y131.300 E21.13091
G1 X126.916 Y132.259 E21.17447
G1 X125.774 Y133.179 E21.21799
G1 X124.600 Y134.058 E21.26153
G1 X123.397 Y134.895 E21.30506
G1 X122.164 Y135.691 E21.34863
G1 X120.905 Y136.443 E21.39218
G1 X119.621 Y137.150 E21.43568
G1 X118.523 Y137.710 E21.47228
G1 X117.196 Y138.333 E21.51582
G1 X115.847 Y138.910 E21.55938
G1 X114.259 Y139.520 E21.60988
G1 X112.871 Y139.993 E21.65342
G1 X111.469 Y140.418 E21.69691
G1 X110.278 Y140.737 E21.73354
G1 X108.850 Y141.071 E21.77708
G1 X107.411 Y141.355 E21.82062
G1 X105.732 Y141.620 E21.87108
G1 X104.508 Y141.771 E21.90772
G1 X103.048 Y141.903 E21.95124
G1 X101.583 Y141.983 E21.99479
G1 X99.883 Y142.013 E22.04529
G1 X98.417 Y141.983 E22.08883
G1 X96.941 Y141.902 E22.13270
G1 X95.492 Y141.771 E22.17590
G1 X94.269 Y141.621 E22.21248
G1 X92.820 Y141.395 E22.25604
G1 X91.150 Y141.071 E22.30654
G1 X89.722 Y140.737 E22.35007
G1 X88.308 Y140.354 E22.39358
G1 X87.129 Y139.993 E22.43019
G1 X85.521 Y139.439 E22.48070
G1 X84.153 Y138.910 E22.52423
G1 X82.805 Y138.333 E22.56778
G1 X81.477 Y137.710 E22.61133
G1 X80.379 Y137.150 E22.64791
G1 X79.095 Y136.443 E22.69143
G1 X77.836 Y135.691 E22.73498
G1 X76.603 Y134.896 E22.77854
G1 X75.211 Y133.920 E22.82903
G1 X74.043 Y133.035 E22.87254
G1 X73.084 Y132.259 E22.90915
G1 X71.975 Y131.300 E22.95270
G1 X70.731 Y130.140 E23.00319
G1 X69.697 Y129.100 E23.04673
G1 X68.856 Y128.199 E23.08333
G1 X67.900 Y127.105 E23.12649
G1 X66.965 Y125.958 E23.17041
G1 X66.080 Y124.789 E23.21394
G1 X65.104 Y123.397 E23.26443
G1 X64.309 Y122.164 E23.30798
G1 X63.557 Y120.905 E23.35153
G1 X56.617 Y108.092 E23.78417
G1 X55.859 Y105.718 E23.85816
G1 X55.718 Y104.536 E23.89350
G1 X55.603 Y103.222 E23.93268
G1 X55.518 Y101.671 E23.97880
G1 X55.487 Y99.883 E24.03189
G1 X55.518 Y98.329 E24.07804
G1 X55.587 Y97.011 E24.11722
G1 X55.718 Y95.464 E24.16334
G1 X55.860 Y94.281 E24.19869
G1 X56.617 Y91.908 E24.27267
G1 X62.925 Y80.235 E24.66661
G1 X63.674 Y78.892 E24.71227
G1 X64.433 Y77.637 E24.75583
G1 X65.104 Y76.603 E24.79241
G1 X65.942 Y75.400 E24.83594
G1 X66.821 Y74.227 E24.87948
G1 X67.741 Y73.084 E24.92302
G1 X68.700 Y71.975 E24.96657
G1 X69.697 Y70.900 E25.01011
G1 X70.253 Y70.338 E25.03358
G1 X70.548 Y70.548 F7800.000
G1 X71.143 Y69.958 E25.05846 F1800.000
G1 X72.044 Y69.118 E25.09504
G1 X73.309 Y68.018 E25.14480
G1 X74.267 Y67.243 E25.18139
G1 X75.425 Y66.365 E25.22455
G1 X76.798 Y65.404 E25.27429
G1 X78.020 Y64.615 E25.31749
G1 X79.268 Y63.869 E25.36066
G1 X80.346 Y63.272 E25.39725
G1 X81.839 Y62.511 E25.44699
G1 X82.955 Y61.990 E25.48357
G1 X84.293 Y61.419 E25.52676
G1 X85.857 Y60.818 E25.57652
G1 X87.233 Y60.348 E25.61968
G1 X88.412 Y59.988 E25.65627
G1 X90.030 Y59.555 E25.70601
G1 X91.231 Y59.277 E25.74260
G1 X92.657 Y58.996 E25.78578
G1 X94.313 Y58.734 E25.83554
G1 X95.536 Y58.584 E25.87213
G1 X96.983 Y58.453 E25.91529
G1 X98.657 Y58.365 E25.96504
G1 X100.122 Y58.344 E26.00856
G1 X101.564 Y58.373 E26.05138 F1800.000
G1 X102.795 Y58.438 E26.08798
G1 X104.244 Y58.561 E26.13115
G1 X105.907 Y58.765 E26.18090
G1 X107.343 Y58.996 E26.22408
G1 X108.769 Y59.277 E26.26725
G1 X109.970 Y59.554 E26.30384
G1 X111.375 Y59.927 E26.34700
G1 X112.977 Y60.417 E26.39674
G1 X114.351 Y60.894 E26.43993
G1 X115.707 Y61.418 E26.48308
G1 X116.842 Y61.900 E26.51968
G1 X118.161 Y62.511 E26.56287
G1 X119.459 Y63.168 E26.60604
G1 X120.924 Y63.980 E26.65577
G1 X122.169 Y64.733 E26.69897
G1 X123.202 Y65.404 E26.73555
G1 X124.395 Y66.234 E26.77871
G1 X125.559 Y67.106 E26.82189
G1 X126.691 Y68.018 E26.86505
G1 X127.791 Y68.969 E26.90824
G1 X128.857 Y69.958 E26.95140
G1 X129.888 Y70.984 E26.99458
G1 X131.031 Y72.209 E27.04432
G1 X131.982 Y73.309 E27.08751
G1 X132.894 Y74.441 E27.13067
G1 X133.766 Y75.605 E27.17385
G1 X134.596 Y76.798 E27.21701
G1 X135.385 Y78.020 E27.26019
G1 X136.131 Y79.268 E27.30337
G1 X143.069 Y92.077 E27.73589
G1 X143.786 Y94.325 E27.80595
G1 X143.926 Y95.495 E27.84092
G1 X144.056 Y97.030 E27.88668
G1 X144.125 Y98.348 E27.92586
G1 X144.156 Y99.889 E27.97162
G1 X144.133 Y101.431 E28.01740
G1 X144.056 Y102.970 E28.06315
G1 X143.926 Y104.505 E28.10891
G1 X143.786 Y105.675 E28.14388
G1 X143.069 Y107.923 E28.21393
G1 X136.728 Y119.654 E28.60987
G1 X136.020 Y120.924 E28.65305
G1 X135.267 Y122.169 E28.69624
G1 X134.472 Y123.386 E28.73940
G1 X133.765 Y124.395 E28.77600
G1 X132.901 Y125.549 E28.81879
G1 X131.982 Y126.691 E28.86232
