; generated by Slic3r 1.2.9 on 2016-04-19 at 14:22:27

; external perimeters extrusion width = 0.40mm
; perimeters extrusion width = 0.67mm
; infill extrusion width = 0.67mm
; solid infill extrusion width = 0.67mm
; top infill extrusion width = 0.18mm

M104 S205 ; set temperature
G28 ; home all axes
G1 Z5 F5000 ; lift nozzle

M109 S205 ; wait for temperature to be reached
G21 ; set units to millimeters
G90 ; use absolute coordinates
M82 ; use absolute distances for extrusion
G92 E0
G1 E-1.00000 F1800.00000
G92 E0
G1 Z0.200 F7800.000
G1 X67.533 Y67.533 F7800.000
G1 E1.00000 F1800.00000
G1 X68.195 Y66.878 E1.02764 F1800.000
G1 X69.177 Y65.962 E1.06753
G1 X70.583 Y64.740 E1.12282
G1 X71.831 Y63.735 E1.17041
G1 X72.904 Y62.926 E1.21031
G1 X74.419 Y61.865 E1.26523
G1 X75.776 Y60.989 E1.31318
G1 X76.928 Y60.297 E1.35307
G1 X78.328 Y59.516 E1.40068
G1 X79.986 Y58.671 E1.45593
G1 X81.441 Y57.998 E1.50354
G1 X82.682 Y57.471 E1.54355
G1 X84.416 Y56.805 E1.59872
G1 X85.927 Y56.290 E1.64613
G1 X87.222 Y55.894 E1.68633
G1 X89.014 Y55.414 E1.74140
G1 X90.570 Y55.059 E1.78880
G1 X91.899 Y54.801 E1.82898
G1 X93.728 Y54.511 E1.88397
G1 X95.071 Y54.346 E1.92415
G1 X96.668 Y54.201 E1.97175
G1 X98.279 Y54.112 E2.01967
G1 X100.137 Y54.081 E2.07484
G1 X101.722 Y54.112 E2.12191 F1800.000
G1 X103.074 Y54.183 E2.16209
G1 X104.671 Y54.318 E2.20969
G1 X106.272 Y54.510 E2.25755
G1 X108.101 Y54.801 E2.31256
G1 X109.430 Y55.059 E2.35274
G1 X110.958 Y55.407 E2.39929
G1 X112.540 Y55.826 E2.44788
G1 X114.074 Y56.290 E2.49546
G1 X115.827 Y56.894 E2.55052
G1 X117.318 Y57.471 E2.59798
G1 X118.559 Y57.998 E2.63800
G1 X120.013 Y58.671 E2.68559
G1 X121.672 Y59.516 E2.74086
G1 X123.072 Y60.297 E2.78846
G1 X124.224 Y60.989 E2.82836
G1 X125.541 Y61.840 E2.87491
G1 X126.886 Y62.774 E2.92353
G1 X128.373 Y63.894 E2.97880
G1 X129.616 Y64.907 E3.02641
G1 X130.823 Y65.962 E3.07401
G1 X131.805 Y66.878 E3.11390
G1 X132.942 Y68.008 E3.16148
G1 X134.212 Y69.370 E3.21677
G1 X135.260 Y70.583 E3.26436
G1 X136.106 Y71.628 E3.30430
G1 X137.074 Y72.904 E3.35185
G1 X137.999 Y74.219 E3.39958
G1 X139.011 Y75.776 E3.45471
G1 X139.832 Y77.152 E3.50231
G1 X140.484 Y78.328 E3.54221
G1 X141.082 Y79.492 E3.58107
G1 X141.897 Y81.204 E3.63738
G1 X142.528 Y82.681 E3.68505
G1 X143.195 Y84.416 E3.74025
G1 X143.709 Y85.924 E3.78754
G1 X144.107 Y87.224 E3.82792
G1 X144.442 Y88.457 E3.86586
G1 X144.891 Y90.336 E3.92320
G1 X145.199 Y91.899 E3.97051
G1 X145.489 Y93.728 E4.02549
G1 X145.682 Y95.329 E4.07338
G1 X145.817 Y96.926 E4.12098
G1 X145.887 Y98.278 E4.16116
G1 X145.919 Y99.844 E4.20767
G1 X145.896 Y101.478 E4.25620
G1 X145.799 Y103.333 E4.31133
G1 X145.654 Y104.929 E4.35891
G1 X145.451 Y106.545 E4.40728
G1 X145.199 Y108.101 E4.45409
G1 X144.948 Y109.396 E4.49323
G1 X144.587 Y110.984 E4.54162
G1 X144.174 Y112.542 E4.58944
G1 X143.632 Y114.313 E4.64445
G1 X143.106 Y115.827 E4.69205
G1 X142.528 Y117.320 E4.73958
G1 X142.002 Y118.559 E4.77953
G1 X141.329 Y120.013 E4.82711
G1 X140.484 Y121.672 E4.88239
G1 X139.832 Y122.848 E4.92229
G1 X139.011 Y124.224 E4.96989
G1 X138.134 Y125.582 E5.01788
G1 X137.073 Y127.096 E5.07276
G1 X136.106 Y128.372 E5.12030
G1 X135.093 Y129.616 E5.16794
G1 X134.212 Y130.630 E5.20783
G1 X133.122 Y131.805 E5.25543
G1 X131.805 Y133.122 E5.31070
G1 X130.630 Y134.212 E5.35830
G1 X129.616 Y135.093 E5.39819
G1 X128.380 Y136.100 E5.44552
G1 X127.096 Y137.073 E5.49337
G1 X125.781 Y138.000 E5.54113
G1 X124.443 Y138.874 E5.58857
G1 X122.848 Y139.832 E5.64384
G1 X121.444 Y140.605 E5.69142
G1 X120.246 Y141.215 E5.73132
G1 X118.796 Y141.897 E5.77891
G1 X117.320 Y142.528 E5.82655
G1 X115.827 Y143.106 E5.87408
G1 X114.077 Y143.709 E5.92905
G1 X112.776 Y144.107 E5.96945
G1 X111.543 Y144.441 E6.00737
G1 X109.664 Y144.891 E6.06473
G1 X108.101 Y145.199 E6.11204
G1 X106.272 Y145.489 E6.16703
G1 X104.671 Y145.682 E6.21491
G1 X103.333 Y145.799 E6.25480
G1 X101.741 Y145.887 E6.30214
G1 X100.113 Y145.920 E6.35047
G1 X98.278 Y145.887 E6.40497
G1 X96.667 Y145.799 E6.45286
G1 X95.329 Y145.682 E6.49275
G1 X93.763 Y145.494 E6.53957
G1 X92.154 Y145.244 E6.58793
G1 X90.569 Y144.941 E6.63585
G1 X88.769 Y144.525 E6.69068
G1 X87.194 Y144.097 E6.73916
G1 X85.924 Y143.709 E6.77859
G1 X84.416 Y143.195 E6.82588
G1 X82.917 Y142.624 E6.87350
G1 X81.204 Y141.897 E6.92875
G1 X79.754 Y141.215 E6.97634
G1 X78.071 Y140.342 E7.03263
G1 X76.928 Y139.703 E7.07152
G1 X75.776 Y139.011 E7.11142
G1 X74.419 Y138.134 E7.15938
G1 X72.905 Y137.074 E7.21428
G1 X71.621 Y136.101 E7.26210
G1 X70.384 Y135.093 E7.30947
G1 X69.370 Y134.212 E7.34936
G1 X68.195 Y133.122 E7.39696
G1 X66.878 Y131.805 E7.45223
G1 X65.962 Y130.823 E7.49212
G1 X64.907 Y129.616 E7.53972
G1 X63.894 Y128.373 E7.58733
G1 X62.927 Y127.096 E7.63490
G1 X61.866 Y125.581 E7.68979
G1 X60.989 Y124.224 E7.73777
G1 X60.168 Y122.847 E7.78536
G1 X59.516 Y121.672 E7.82527
G1 X58.918 Y120.508 E7.86414
G1 X58.103 Y118.796 E7.92043
G1 X57.471 Y117.318 E7.96815
G1 X56.805 Y115.584 E8.02331
G1 X56.290 Y114.074 E8.07067
G1 X55.903 Y112.806 E8.11003
G1 X55.475 Y111.231 E8.15851
G1 X55.059 Y109.430 E8.21339
G1 X54.756 Y107.846 E8.26125
G1 X54.506 Y106.237 E8.30962
G1 X54.318 Y104.671 E8.35644
G1 X54.201 Y103.332 E8.39633
G1 X54.112 Y101.722 E8.44421
G1 X54.080 Y99.889 E8.49866
G1 X54.113 Y98.259 E8.54705
G1 X54.201 Y96.668 E8.59438
G1 X54.318 Y95.329 E8.63428
G1 X54.511 Y93.728 E8.68216
G1 X54.801 Y91.899 E8.73715
G1 X55.059 Y90.570 E8.77733
G1 X55.407 Y89.042 E8.82388
G1 X55.825 Y87.460 E8.87244
G1 X56.290 Y85.927 E8.92000
G1 X56.894 Y84.173 E8.97511
G1 X57.471 Y82.682 E9.02257
G1 X57.998 Y81.441 E9.06259
G1 X58.671 Y79.986 E9.11018
G1 X59.516 Y78.328 E9.16545
G1 X60.297 Y76.928 E9.21305
G1 X60.989 Y75.776 E9.25295
G1 X61.840 Y74.459 E9.29950
G1 X62.774 Y73.114 E9.34812
G1 X63.735 Y71.831 E9.39572
G1 X64.907 Y70.384 E9.45100
G1 X65.962 Y69.177 E9.49860
G1 X66.878 Y68.195 E9.53849
G1 X67.491 Y67.576 E9.56434
G1 X67.786 Y67.786 F7800.000
G1 X68.438 Y67.139 E9.59161 F1800.000
G1 X69.421 Y66.223 E9.63150
G1 X70.808 Y65.018 E9.68606
G1 X72.046 Y64.020 E9.73327
G1 X73.119 Y63.212 E9.77317
G1 X74.614 Y62.164 E9.82737
G1 X75.960 Y61.296 E9.87493
G1 X77.326 Y60.480 E9.92215
G1 X78.501 Y59.828 E9.96206
G1 X80.137 Y58.995 E10.01658
G1 X81.581 Y58.326 E10.06381
G1 X82.821 Y57.800 E10.10382
G1 X84.533 Y57.143 E10.15825
G1 X86.032 Y56.631 E10.20530
G1 X87.298 Y56.244 E10.24460
G1 X89.094 Y55.762 E10.29983
G1 X90.680 Y55.401 E10.34810
G1 X92.210 Y55.108 E10.39435
G1 X93.539 Y54.898 E10.43431
G1 X95.360 Y54.674 E10.48879
G1 X96.945 Y54.540 E10.53602
G1 X98.298 Y54.469 E10.57623
G1 X100.106 Y54.437 E10.62993
G1 X101.704 Y54.469 E10.67739 F1800.000
G1 X103.301 Y54.557 E10.72488
G1 X104.640 Y54.674 E10.76478
G1 X106.193 Y54.861 E10.81123
G1 X107.790 Y55.108 E10.85922
G1 X109.361 Y55.409 E10.90671
G1 X111.138 Y55.820 E10.96087
G1 X112.702 Y56.244 E11.00897
G1 X113.969 Y56.631 E11.04831
G1 X115.467 Y57.143 E11.09532
G1 X117.179 Y57.800 E11.14974
G1 X118.645 Y58.427 E11.19708
G1 X120.346 Y59.236 E11.25301
G1 X121.499 Y59.829 E11.29151
G1 X122.674 Y60.480 E11.33141
G1 X124.040 Y61.295 E11.37864
G1 X125.578 Y62.294 E11.43308
G1 X126.881 Y63.212 E11.48040
G1 X128.148 Y64.172 E11.52760
G1 X129.192 Y65.018 E11.56751
G1 X130.396 Y66.058 E11.61473
G1 X131.739 Y67.311 E11.66928
G1 X132.689 Y68.261 E11.70917
G1 X133.777 Y69.421 E11.75638
G1 X134.824 Y70.618 E11.80361
G1 X135.829 Y71.853 E11.85087
G1 X136.933 Y73.319 E11.90538
G1 X137.861 Y74.653 E11.95363
G1 X138.704 Y75.960 E11.99981
G1 X139.397 Y77.112 E12.03971
G1 X140.172 Y78.501 E12.08694
G1 X141.005 Y80.138 E12.14148
G1 X141.674 Y81.581 E12.18869
G1 X142.200 Y82.820 E12.22867
G1 X142.773 Y84.301 E12.27580
G1 X143.368 Y86.028 E12.33006
G1 X143.829 Y87.551 E12.37730
G1 X144.239 Y89.096 E12.42475
G1 X144.597 Y90.673 E12.47278
G1 X144.849 Y91.967 E12.51191
G1 X145.098 Y93.511 E12.55835
G1 X145.300 Y95.115 E12.60634
G1 X145.443 Y96.699 E12.65356
G1 X145.539 Y98.528 E12.70796
G1 X145.562 Y100.150 E12.75611
G1 X145.531 Y101.704 E12.80227
G1 X145.460 Y103.055 E12.84243
G1 X145.326 Y104.640 E12.88966
G1 X145.103 Y106.459 E12.94408
G1 X144.849 Y108.033 E12.99142
G1 X144.590 Y109.363 E13.03163
G1 X144.239 Y110.904 E13.07858
G1 X143.829 Y112.449 E13.12602
G1 X143.294 Y114.197 E13.18030
G1 X142.772 Y115.699 E13.22753
G1 X142.199 Y117.181 E13.27469
G1 X141.674 Y118.419 E13.31464
G1 X140.897 Y120.084 E13.36918
G1 X140.172 Y121.499 E13.41639
G1 X139.520 Y122.674 E13.45630
G1 X138.704 Y124.040 E13.50352
G1 X137.835 Y125.387 E13.55112
G1 X136.788 Y126.881 E13.60528
G1 X135.829 Y128.147 E13.65245
G1 X134.824 Y129.382 E13.69972
G1 X133.777 Y130.579 E13.74695
G1 X132.861 Y131.562 E13.78684
G1 X131.562 Y132.861 E13.84138
G1 X130.396 Y133.942 E13.88860
G1 X129.382 Y134.824 E13.92849
G1 X128.155 Y135.822 E13.97545
G1 X126.881 Y136.788 E14.02293
G1 X125.576 Y137.707 E14.07031
G1 X124.249 Y138.574 E14.11739
G1 X122.674 Y139.520 E14.17192
G1 X121.281 Y140.287 E14.21913
G1 X120.084 Y140.897 E14.25903
G1 X118.645 Y141.573 E14.30625
G1 X117.181 Y142.199 E14.35352
G1 X115.699 Y142.772 E14.40069
G1 X113.972 Y143.368 E14.45493
G1 X112.672 Y143.765 E14.49530
G1 X111.451 Y144.097 E14.53287
G1 X109.585 Y144.543 E14.58984
G1 X108.033 Y144.849 E14.63679
G1 X106.228 Y145.135 E14.69105
G1 X104.640 Y145.326 E14.73855
G1 X103.301 Y145.443 E14.77844
G1 X101.722 Y145.530 E14.82541
G1 X100.108 Y145.563 E14.87335
G1 X98.296 Y145.531 E14.92715
G1 X96.699 Y145.443 E14.97465
G1 X95.360 Y145.326 E15.01454
G1 X93.807 Y145.139 E15.06099
G1 X92.210 Y144.892 E15.10899
G1 X90.637 Y144.590 E15.15651
G1 X88.862 Y144.180 E15.21062
G1 X87.298 Y143.756 E15.25873
G1 X86.028 Y143.368 E15.29815
G1 X84.533 Y142.857 E15.34508
G1 X83.045 Y142.291 E15.39233
G1 X81.355 Y141.573 E15.44685
G1 X79.916 Y140.897 E15.49406
G1 X78.244 Y140.029 E15.54998
G1 X77.112 Y139.397 E15.58850
G1 X75.960 Y138.704 E15.62840
G1 X74.614 Y137.835 E15.67598
G1 X73.119 Y136.788 E15.73015
G1 X71.846 Y135.823 E15.77760
G1 X70.618 Y134.824 E15.82460
G1 X69.604 Y133.942 E15.86449
G1 X68.438 Y132.860 E15.91172
G1 X67.139 Y131.562 E15.96625
G1 X66.223 Y130.579 E16.00615
G1 X65.176 Y129.382 E16.05337
G1 X64.172 Y128.148 E16.10061
G1 X63.212 Y126.881 E16.14781
G1 X62.165 Y125.386 E16.20198
G1 X61.295 Y124.040 E16.24957
G1 X60.480 Y122.674 E16.29680
G1 X59.829 Y121.499 E16.33670
G1 X59.236 Y120.346 E16.37519
G1 X58.427 Y118.645 E16.43112
G1 X57.800 Y117.179 E16.47846
G1 X57.143 Y115.467 E16.53289
G1 X56.631 Y113.969 E16.57990
G1 X56.244 Y112.702 E16.61924
G1 X55.820 Y111.138 E16.66734
G1 X55.409 Y109.361 E16.72150
G1 X55.108 Y107.790 E16.76898
G1 X54.861 Y106.193 E16.81698
G1 X54.674 Y104.640 E16.86343
G1 X54.557 Y103.301 E16.90332
G1 X54.469 Y101.704 E16.95082
G1 X54.437 Y99.894 E17.00457
G1 X54.470 Y98.278 E17.05256
G1 X54.557 Y96.699 E17.09952
G1 X54.674 Y95.360 E17.13942
G1 X54.865 Y93.772 E17.18692
G1 X55.151 Y91.967 E17.24118
G1 X55.409 Y90.639 E17.28134
G1 X55.756 Y89.120 E17.32761
G1 X56.170 Y87.553 E17.37572
G1 X56.631 Y86.032 E17.42291
G1 X57.227 Y84.301 E17.47729
G1 X57.800 Y82.821 E17.52439
G1 X58.326 Y81.581 E17.56440
G1 X58.995 Y80.137 E17.61162
G1 X59.828 Y78.501 E17.66615
G1 X60.603 Y77.112 E17.71338
G1 X61.296 Y75.960 E17.75328
G1 X62.139 Y74.653 E17.79946
G1 X63.066 Y73.319 E17.84771
G1 X64.020 Y72.046 E17.89494
G1 X65.176 Y70.618 E17.94948
G1 X66.223 Y69.421 E17.99671
G1 X67.139 Y68.438 E18.03660
G1 X67.743 Y67.828 E18.06208
G1 X68.038 Y68.038 F7800.000
G1 X68.682 Y67.401 E18.08898 F1800.000
G1 X69.664 Y66.484 E18.12887
G1 X71.032 Y65.295 E18.18269
G1 X72.261 Y64.306 E18.22953
G1 X73.334 Y63.497 E18.26943
G1 X74.809 Y62.464 E18.32290
G1 X76.144 Y61.602 E18.37008
G1 X77.499 Y60.792 E18.41694
G1 X78.674 Y60.141 E18.45684
G1 X80.288 Y59.318 E18.51062
G1 X81.720 Y58.655 E18.55748
G1 X82.960 Y58.129 E18.59748
G1 X84.649 Y57.481 E18.65118
G1 X86.137 Y56.972 E18.69786
G1 X87.431 Y56.577 E18.73804
G1 X89.175 Y56.110 E18.79165
G1 X90.708 Y55.760 E18.83833
G1 X92.035 Y55.502 E18.87848
G1 X93.816 Y55.219 E18.93202
G1 X95.158 Y55.054 E18.97218
G1 X96.730 Y54.913 E19.01903
G1 X98.316 Y54.826 E19.06618
G1 X100.126 Y54.795 E19.11995
G1 X101.686 Y54.826 E19.16626 F1800.000
G1 X103.036 Y54.896 E19.20642
G1 X104.609 Y55.030 E19.25327
G1 X106.184 Y55.219 E19.30037
G1 X107.965 Y55.502 E19.35392
G1 X109.292 Y55.760 E19.39407
G1 X110.800 Y56.104 E19.43998
G1 X112.355 Y56.515 E19.48773
G1 X113.864 Y56.973 E19.53457
G1 X115.571 Y57.561 E19.58818
G1 X117.039 Y58.129 E19.63491
G1 X118.280 Y58.655 E19.67492
G1 X119.712 Y59.318 E19.72177
G1 X121.326 Y60.141 E19.77557
G1 X122.704 Y60.910 E19.82243
G1 X123.856 Y61.602 E19.86232
G1 X125.152 Y62.439 E19.90814
G1 X126.476 Y63.359 E19.95601
G1 X127.923 Y64.449 E20.00981
G1 X129.147 Y65.446 E20.05667
G1 X130.336 Y66.484 E20.10353
G1 X131.318 Y67.401 E20.14342
G1 X132.437 Y68.513 E20.19026
G1 X133.673 Y69.839 E20.24407
G1 X134.705 Y71.032 E20.29092
G1 X135.551 Y72.077 E20.33085
G1 X136.498 Y73.327 E20.37740
G1 X137.414 Y74.628 E20.42464
G1 X138.398 Y76.144 E20.47831
G1 X139.208 Y77.499 E20.52517
G1 X139.859 Y78.674 E20.56507
G1 X140.446 Y79.816 E20.60320
G1 X141.250 Y81.506 E20.65876
G1 X141.871 Y82.960 E20.70568
G1 X142.519 Y84.649 E20.75941
G1 X143.026 Y86.133 E20.80599
G1 X143.424 Y87.433 E20.84633
G1 X143.752 Y88.642 E20.88354
G1 X144.195 Y90.495 E20.94011
G1 X144.498 Y92.035 E20.98670
G1 X144.781 Y93.816 E21.04024
G1 X144.970 Y95.391 E21.08736
G1 X145.104 Y96.964 E21.13421
G1 X145.174 Y98.314 E21.17437
G1 X145.205 Y99.857 E21.22017
G1 X145.182 Y101.465 E21.26794
G1 X145.087 Y103.270 E21.32161
G1 X144.946 Y104.842 E21.36845
G1 X144.745 Y106.433 E21.41608
G1 X144.498 Y107.965 E21.46215
G1 X144.247 Y109.259 E21.50129
G1 X143.891 Y110.824 E21.54893
G1 X143.484 Y112.356 E21.59600
G1 X142.957 Y114.081 E21.64955
G1 X142.439 Y115.571 E21.69640
G1 X141.871 Y117.041 E21.74320
G1 X141.345 Y118.280 E21.78314
G1 X140.682 Y119.711 E21.82999
G1 X139.859 Y121.326 E21.88379
G1 X139.208 Y122.501 E21.92369
G1 X138.398 Y123.856 E21.97055
G1 X137.536 Y125.192 E22.01776
G1 X136.503 Y126.666 E22.07120
G1 X135.551 Y127.922 E22.11800
G1 X134.554 Y129.147 E22.16490
G1 X133.673 Y130.161 E22.20479
G1 X132.599 Y131.318 E22.25164
G1 X131.318 Y132.599 E22.30544
G1 X130.161 Y133.673 E22.35230
G1 X129.147 Y134.554 E22.39219
G1 X127.930 Y135.545 E22.43878
G1 X126.666 Y136.503 E22.48589
G1 X125.371 Y137.414 E22.53289
G1 X124.054 Y138.275 E22.57961
G1 X122.501 Y139.208 E22.63339
G1 X121.119 Y139.969 E22.68024
G1 X119.922 Y140.579 E22.72014
G1 X118.494 Y141.250 E22.76699
G1 X117.041 Y141.871 E22.81388
G1 X115.571 Y142.439 E22.86068
G1 X113.867 Y143.026 E22.91420
G1 X112.568 Y143.424 E22.95455
G1 X111.358 Y143.752 E22.99177
G1 X109.505 Y144.195 E23.04834
G1 X107.965 Y144.498 E23.09493
G1 X106.184 Y144.781 E23.14847
G1 X104.609 Y144.970 E23.19559
G1 X103.270 Y145.087 E23.23548
G1 X101.703 Y145.173 E23.28207
G1 X100.102 Y145.206 E23.32962
G1 X98.314 Y145.174 E23.38272
G1 X96.730 Y145.087 E23.42984
G1 X95.391 Y144.970 E23.46973
G1 X93.850 Y144.785 E23.51581
G1 X92.265 Y144.539 E23.56343
G1 X90.706 Y144.240 E23.61057
G1 X88.954 Y143.835 E23.66397
G1 X87.402 Y143.414 E23.71170
G1 X86.133 Y143.026 E23.75110
G1 X84.649 Y142.519 E23.79768
G1 X83.173 Y141.957 E23.84455
G1 X81.506 Y141.250 E23.89833
G1 X80.078 Y140.579 E23.94518
G1 X78.418 Y139.717 E24.00073
G1 X77.296 Y139.090 E24.03888
G1 X76.144 Y138.398 E24.07877
G1 X74.809 Y137.536 E24.12596
G1 X73.334 Y136.503 E24.17942
G1 X72.070 Y135.545 E24.22654
G1 X70.853 Y134.554 E24.27313
G1 X69.839 Y133.673 E24.31302
G1 X68.682 Y132.599 E24.35987
G1 X67.401 Y131.318 E24.41367
G1 X66.327 Y130.161 E24.46052
G1 X65.295 Y128.968 E24.50737
G1 X64.449 Y127.923 E24.54728
G1 X63.497 Y126.666 E24.59412
G1 X62.464 Y125.191 E24.64757
G1 X61.602 Y123.856 E24.69477
G1 X60.792 Y122.501 E24.74162
G1 X60.141 Y121.326 E24.78152
G1 X59.554 Y120.184 E24.81965
G1 X58.750 Y118.494 E24.87521
G1 X58.129 Y117.039 E24.92217
G1 X57.481 Y115.351 E24.97586
G1 X56.973 Y113.864 E25.02251
G1 X56.586 Y112.598 E25.06184
G1 X56.165 Y111.046 E25.10957
G1 X55.760 Y109.292 E25.16301
G1 X55.461 Y107.735 E25.21011
